flaticon/music/drum-3.svg

<svg xmlns="http://www.w3.org/2000/svg" width="32" height="32" viewBox="0 0 24 24">
    <path d="M 12 10.792969 C 8.910156 10.792969 6.398438 13.304688 6.398438 16.390625 C 6.398438 19.480469 8.910156 21.992188 12 21.992188 C 15.089844 21.992188 17.601562 19.480469 17.601562 16.390625 C 17.601562 13.304688 15.089844 10.792969 12 10.792969 Z M 12 21.191406 C 9.351562 21.191406 7.199219 19.039062 7.199219 16.390625 C 7.199219 13.746094 9.351562 11.589844 12 11.589844 C 14.648438 11.589844 16.800781 13.746094 16.800781 16.390625 C 16.800781 19.039062 14.648438 21.191406 12 21.191406 Z M 12 21.191406"/>
    <path d="M24 2.390625C24 2.171875 23.820312 1.992188 23.601562 1.992188 21.855469 1.992188 21.15625 2.125 20.800781 2.34375 20.445312 2.125 19.746094 1.992188 18 1.992188 17.777344 1.992188 17.601562 2.171875 17.601562 2.390625 17.601562 2.613281 17.777344 2.792969 18 2.792969 20.015625 2.792969 20.347656 2.980469 20.394531 3.027344 20.402344 3.046875 20.402344 3.109375 20.398438 3.15625 20.398438 3.15625 20.398438 3.191406 20.398438 3.191406L20.398438 5.808594 15.164062 7.1875C14.988281 7.234375 14.839844 7.347656 14.746094 7.507812 14.65625 7.664062 14.628906 7.851562 14.675781 8.027344L15.054688 9.441406C14.214844 9.070312 13.316406 8.855469 12.398438 8.804688L12.398438 6.390625 14.800781 6.390625C15.019531 6.390625 15.199219 6.210938 15.199219 5.992188 15.199219 5.769531 15.019531 5.589844 14.800781 5.589844L9.199219 5.589844C8.980469 5.589844 8.800781 5.769531 8.800781 5.992188 8.800781 6.210938 8.980469 6.390625 9.199219 6.390625L11.601562 6.390625 11.601562 8.804688C10.683594 8.855469 9.785156 9.070312 8.945312 9.441406L9.320312 8.027344C9.371094 7.851562 9.34375 7.667969 9.253906 7.507812 9.160156 7.347656 9.011719 7.234375 8.835938 7.1875L3.601562 5.808594 3.601562 3.191406C3.601562 3.1875 3.597656 3.179688 3.597656 3.175781 3.597656 3.171875 3.601562 3.167969 3.601562 3.160156 3.601562 3.160156 3.601562 3.160156 3.601562 3.15625 3.597656 3.109375 3.597656 3.046875 3.597656 3.039062 3.652344 2.980469 3.984375 2.792969 6 2.792969 6.222656 2.792969 6.398438 2.613281 6.398438 2.390625 6.398438 2.171875 6.222656 1.992188 6 1.992188 4.253906 1.992188 3.554688 2.125 3.199219 2.34375 2.84375 2.125 2.144531 1.992188.398438 1.992188.179688 1.992188 0 2.171875 0 2.390625 0 2.613281.179688 2.792969.398438 2.792969 2.414062 2.792969 2.746094 2.980469 2.792969 3.027344 2.800781 3.046875 2.800781 3.109375 2.800781 3.15625 2.800781 3.160156 2.800781 3.191406 2.800781 3.191406L2.800781 5.597656 2.007812 5.386719C1.644531 5.292969 1.265625 5.507812 1.167969 5.871094L.488281 8.410156C.441406 8.589844.464844 8.773438.558594 8.933594.648438 9.089844.796875 9.207031.976562 9.253906L2.800781 9.734375 2.800781 20.625.117188 23.308594C-.0390625 23.464844-.0390625 23.71875.117188 23.875.195312 23.953125.296875 23.992188.398438 23.992188.503906 23.992188.605469 23.953125.683594 23.875L2.800781 21.757812 2.800781 23.59375C2.800781 23.8125 2.980469 23.992188 3.199219 23.992188 3.421875 23.992188 3.601562 23.8125 3.601562 23.59375L3.601562 21.757812 5.71875 23.875C5.796875 23.953125 5.898438 23.992188 6 23.992188 6.101562 23.992188 6.203125 23.953125 6.28125 23.875 6.4375 23.71875 6.4375 23.464844 6.28125 23.308594L3.601562 20.625 3.601562 9.945312 6.863281 10.804688C5.289062 12.242188 4.398438 14.238281 4.398438 16.390625 4.398438 19.03125 5.753906 21.359375 7.804688 22.722656L7.613281 23.496094C7.558594 23.707031 7.6875 23.925781 7.902344 23.980469 7.9375 23.988281 7.96875 23.992188 8 23.992188 8.179688 23.992188 8.34375 23.871094 8.386719 23.6875L8.523438 23.140625C9.566406 23.679688 10.746094 23.992188 12 23.992188 13.253906 23.992188 14.433594 23.679688 15.476562 23.140625L15.613281 23.6875C15.65625 23.871094 15.820312 23.992188 16 23.992188 16.03125 23.992188 16.0625 23.988281 16.097656 23.980469 16.3125 23.925781 16.441406 23.707031 16.386719 23.496094L16.195312 22.722656C18.246094 21.359375 19.601562 19.03125 19.601562 16.390625 19.601562 14.238281 18.710938 12.242188 17.136719 10.804688L20.398438 9.945312 20.398438 20.625 17.71875 23.308594C17.5625 23.464844 17.5625 23.71875 17.71875 23.875 17.796875 23.953125 17.898438 23.992188 18 23.992188 18.101562 23.992188 18.203125 23.953125 18.28125 23.875L20.398438 21.757812 20.398438 23.59375C20.398438 23.8125 20.578125 23.992188 20.800781 23.992188 21.019531 23.992188 21.199219 23.8125 21.199219 23.59375L21.199219 21.757812 23.316406 23.875C23.394531 23.953125 23.496094 23.992188 23.601562 23.992188 23.703125 23.992188 23.804688 23.953125 23.882812 23.875 24.039062 23.71875 24.039062 23.464844 23.882812 23.308594L21.199219 20.625 21.199219 9.734375 23.023438 9.253906C23.203125 9.203125 23.351562 9.089844 23.441406 8.933594 23.535156 8.773438 23.558594 8.589844 23.511719 8.410156L22.832031 5.871094C22.734375 5.507812 22.359375 5.289062 21.992188 5.386719L21.199219 5.597656 21.199219 3.191406C21.199219 3.1875 21.195312 3.179688 21.195312 3.175781 21.195312 3.171875 21.199219 3.167969 21.199219 3.160156 21.199219 3.160156 21.199219 3.160156 21.199219 3.15625 21.199219 3.109375 21.199219 3.046875 21.199219 3.039062 21.253906 2.980469 21.585938 2.792969 23.601562 2.792969 23.820312 2.792969 24 2.613281 24 2.390625zM1.910156 6.1875L8.519531 7.933594 7.980469 9.949219 7.898438 10.25 1.289062 8.507812zM16.199219 11.054688C17.855469 12.355469 18.800781 14.289062 18.800781 16.390625 18.800781 20.140625 15.75 23.191406 12 23.191406 8.25 23.191406 5.199219 20.140625 5.199219 16.390625 5.199219 14.289062 6.144531 12.351562 7.800781 11.050781L7.804688 11.054688C7.859375 11.066406 7.914062 11.074219 7.96875 11.074219 7.972656 11.074219 7.976562 11.074219 7.976562 11.074219 7.984375 11.074219 7.988281 11.074219 7.996094 11.074219 8.132812 11.070312 8.265625 11.023438 8.378906 10.945312 8.386719 10.9375 8.394531 10.933594 8.402344 10.925781 8.453125 10.886719 8.5 10.839844 8.535156 10.785156 8.542969 10.777344 8.546875 10.765625 8.554688 10.757812 8.589844 10.699219 8.621094 10.640625 8.640625 10.570312 8.640625 10.570312 8.640625 10.570312 8.640625 10.566406L8.667969 10.472656C10.707031 9.320312 13.292969 9.320312 15.332031 10.472656L15.359375 10.566406C15.359375 10.570312 15.359375 10.574219 15.363281 10.578125 15.378906 10.644531 15.410156 10.703125 15.445312 10.757812 15.449219 10.765625 15.457031 10.777344 15.464844 10.785156 15.5 10.839844 15.546875 10.886719 15.597656 10.925781 15.605469 10.933594 15.613281 10.9375 15.621094 10.941406 15.730469 11.023438 15.863281 11.070312 16.003906 11.074219 16.011719 11.074219 16.015625 11.074219 16.023438 11.074219 16.027344 11.074219 16.03125 11.074219 16.035156 11.074219 16.085938 11.074219 16.140625 11.066406 16.195312 11.054688 16.195312 11.054688 16.195312 11.054688 16.195312 11.050781zM22.089844 6.1875L22.710938 8.507812 16.101562 10.25 16.019531 9.949219 15.480469 7.933594zM18 1.589844C19.746094 1.589844 20.445312 1.460938 20.800781 1.238281 21.15625 1.460938 21.855469 1.589844 23.601562 1.589844 23.820312 1.589844 24 1.414062 24 1.191406 24 .96875 23.820312.792969 23.601562.792969 21.585938.792969 21.253906.601562 21.207031.558594 21.199219.535156 21.199219.472656 21.199219.425781 21.199219.425781 21.199219.390625 21.199219.390625 21.199219.171875 21.023438.0078125 20.800781.0078125 20.578125.0078125 20.402344.203125 20.398438.421875 20.398438.421875 20.398438.425781 20.398438.425781 20.402344.472656 20.402344.535156 20.402344.542969 20.347656.601562 20.015625.792969 18 .792969 17.777344.792969 17.601562.96875 17.601562 1.191406 17.601562 1.414062 17.777344 1.589844 18 1.589844zM.398438 1.589844C2.144531 1.589844 2.84375 1.460938 3.199219 1.238281 3.554688 1.460938 4.253906 1.589844 6 1.589844 6.222656 1.589844 6.398438 1.414062 6.398438 1.191406 6.398438.96875 6.222656.792969 6 .792969 3.984375.792969 3.652344.601562 3.605469.558594 3.597656.539062 3.597656.472656 3.601562.425781 3.601562.425781 3.601562.390625 3.601562.390625 3.601562.171875 3.421875.0078125 3.199219.0078125 2.992188.0234375 2.800781.203125 2.800781.421875 2.800781.425781 2.800781.425781 2.800781.425781 2.800781.472656 2.800781.539062 2.800781.542969 2.746094.601562 2.414062.792969.398438.792969.179688.792969 0 .96875 0 1.191406 0 1.414062.179688 1.589844.398438 1.589844zM.398438 1.589844"/>
    <path d="M 13.800781 15.992188 C 12.808594 15.992188 12 16.800781 12 17.792969 C 12 18.785156 12.808594 19.589844 13.800781 19.589844 C 14.792969 19.589844 15.601562 18.785156 15.601562 17.792969 C 15.601562 16.800781 14.792969 15.992188 13.800781 15.992188 Z M 13.800781 18.792969 C 13.25 18.792969 12.800781 18.34375 12.800781 17.792969 C 12.800781 17.238281 13.25 16.792969 13.800781 16.792969 C 14.351562 16.792969 14.800781 17.238281 14.800781 17.792969 C 14.800781 18.34375 14.351562 18.792969 13.800781 18.792969 Z M 13.800781 18.792969"/>
</svg>

<svg xmlns="http://www.w3.org/2000/svg" width="32" height="32" viewBox="0 0 24 24">
    <path d="M12 10.793a5.606 5.606 0 0 0-5.602 5.598A5.606 5.606 0 0 0 12 21.992a5.606 5.606 0 0 0 5.602-5.601A5.606 5.606 0 0 0 12 10.793zm0 10.398a4.805 4.805 0 0 1-4.8-4.8c0-2.645 2.152-4.801 4.8-4.801 2.648 0 4.8 2.156 4.8 4.8 0 2.65-2.152 4.801-4.8 4.801zm0 0"/>
    <path d="M24 2.39a.4.4 0 0 0-.398-.398c-1.747 0-2.446.133-2.801.352-.356-.219-1.055-.352-2.801-.352a.398.398 0 0 0-.398.399c0 .222.175.402.398.402 2.016 0 2.348.187 2.395.234.007.02.007.082.003.13V5.808l-5.234 1.378a.687.687 0 0 0-.488.84l.379 1.414a7.605 7.605 0 0 0-2.657-.636V6.39h2.403a.4.4 0 0 0 0-.801H9.199a.401.401 0 0 0 0 .8h2.403v2.415a7.605 7.605 0 0 0-2.657.636l.375-1.414a.673.673 0 0 0-.066-.52.687.687 0 0 0-.418-.32L3.602 5.81V3.19c0-.003-.004-.011-.004-.015s.004-.008.004-.016v-.004c-.004-.047-.004-.11-.004-.117.054-.059.386-.246 2.402-.246.223 0 .398-.18.398-.402A.398.398 0 0 0 6 1.992c-1.746 0-2.445.133-2.8.352-.356-.219-1.055-.352-2.802-.352a.4.4 0 0 0 0 .801c2.016 0 2.348.187 2.395.234.008.02.008.082.008.13v2.441l-.793-.211a.692.692 0 0 0-.84.484l-.68 2.54a.682.682 0 0 0 .07.523.68.68 0 0 0 .419.32l1.824.48v10.891L.117 23.309a.4.4 0 0 0 .567.566L2.8 21.758v1.836a.4.4 0 0 0 .8 0v-1.836l2.118 2.117a.396.396 0 0 0 .562 0 .4.4 0 0 0 0-.566l-2.68-2.684V9.945l3.262.86a7.512 7.512 0 0 0-2.465 5.586 7.597 7.597 0 0 0 3.407 6.332l-.192.773a.399.399 0 1 0 .774.192l.136-.547a7.549 7.549 0 0 0 3.477.851 7.549 7.549 0 0 0 3.477-.851l.136.547a.396.396 0 0 0 .485.292.399.399 0 0 0 .289-.484l-.192-.773a7.597 7.597 0 0 0 3.407-6.332c0-2.153-.891-4.149-2.465-5.586l3.261-.86v10.68l-2.68 2.684a.4.4 0 0 0 .282.683c.102 0 .203-.039.281-.117l2.117-2.117v1.836a.401.401 0 0 0 .801 0v-1.836l2.117 2.117a.399.399 0 0 0 .567 0 .4.4 0 0 0 0-.566l-2.684-2.684V9.735l1.824-.481a.694.694 0 0 0 .489-.844l-.68-2.539a.687.687 0 0 0-.84-.484l-.793.21V3.192c0-.003-.004-.011-.004-.015s.004-.008.004-.016v-.004-.117c.055-.059.387-.246 2.403-.246.218 0 .398-.18.398-.402zM1.91 6.188l6.61 1.747-.54 2.015-.082.301L1.29 8.508zm14.29 4.868a6.73 6.73 0 0 1 2.6 5.336c0 3.75-3.05 6.8-6.8 6.8s-6.8-3.05-6.8-6.8c0-2.102.945-4.04 2.6-5.34l.005.004c.054.011.11.02.164.02h.028a.713.713 0 0 0 .382-.13c.008-.008.016-.011.023-.02a.569.569 0 0 0 .133-.14c.008-.008.012-.02.02-.027a.746.746 0 0 0 .086-.188v-.004l.027-.093a6.855 6.855 0 0 1 6.664 0l.027.093a.579.579 0 0 0 .105.219.569.569 0 0 0 .157.156c.11.082.242.13.383.133h.031a.78.78 0 0 0 .16-.02v-.003zm5.89-4.867l.62 2.32-6.608 1.742-.082-.3-.54-2.016zm0 0M18 1.59c1.746 0 2.445-.13 2.8-.352.356.223 1.055.352 2.802.352a.398.398 0 1 0 0-.797c-2.016 0-2.348-.191-2.395-.234-.008-.024-.008-.086-.008-.133V.39a.385.385 0 0 0-.398-.383c-.223 0-.399.195-.403.414v.004c.004.047.004.11.004.117-.054.059-.386.25-2.402.25a.395.395 0 0 0-.398.398c0 .223.175.399.398.399zm0 0M.398 1.59c1.747 0 2.446-.13 2.801-.352.356.223 1.055.352 2.801.352a.395.395 0 0 0 .398-.399A.395.395 0 0 0 6 .793C3.984.793 3.652.602 3.605.559a.462.462 0 0 1-.003-.133V.39c0-.22-.18-.383-.403-.383-.207.015-.398.195-.398.414V.543c-.055.059-.387.25-2.403.25a.398.398 0 1 0 0 .797zm0 0"/>
    <path d="M13.8 15.992c-.991 0-1.8.809-1.8 1.801a1.8 1.8 0 0 0 3.602 0c0-.992-.809-1.8-1.801-1.8zm0 2.801a1 1 0 1 1-.001-2.001 1 1 0 0 1 .002 2.001zm0 0"/>
</svg>
